X:66
T:Geese in the Bog, The   
T:Sonny Brogan setting 
B:CRE1.028 (Geabha sa bPortach)
F:file ID: cre.1/066geese
S:Sonny Brogan
M:6/8
Q:160
R:jig
K:D
dB|:AFE EFE|DED D2B|AFE EFE|DFA BdB|
"5"AFE EFE|DED D2f|gfe fdB|1 AFA BdB:|\
[2 AFA B2A||
"9"|:d2e fdB|AFA AFA|Add fdB|AFA BAF|
"13"Add fdB|AFA A2f|gfe fdB|AFA B2A:|
"17"|:Add fdd|edd fdd|Add fdB|AFA BAF|
"21"Add fdd|edd fdd|faf edB|AFA BAF:|
"25"|:DFA dAF|DFA BAF|DFA dAF|DFA B2A|
"29"DFA dAF|DFA def|gfe fdB|AFA B2A:|
"33"|:def def|dAF DFA|def dAF|DFA B2A|
"37"def def|ded def|gfe fdB|AFA B2A:|

%%%

